X:3
T:Marquis Of Waterford, The
M:4/4
L:1/8
S:Darcie's TrTuneSbk Vo.2 (1998) p. 28
R:hornpipe
Z: Wosika
K:GMaj
|: (3DEF| "G"GFGA Gdef| gGFG EGDG| "C"C2ed "Amin"cBAG| "D"(3FGA (3GFE DcBA|
"G"GFGA Gdef| gGFG "C"EGce| "G"dBGB "D"AFDF| "G"G2 B2 G2:||:
Bc| "G"dBgB dB"C"ce| "G"dBgB dB"C"ce|1 "G"dBed "Amin"cBAG| "D"(3FGA (3GFE D2:|
|2 "G"dBGB "D"AFDF| "G"G2 B2 G2:|3 "G"dBed "Amin"cBAG| "D"(3FGA (3GFE DcBA|
"G"GFGA Gdef| gGFG "C"EGce| "G"dBGB "D"AFDF| "G"G2 B2 G2||
